lib/logo_tmp/nrk-logo-nrk-sami-radio-title-below.svg

<svg width="97" height="35" viewBox="0 0 97 35" fill="none" xmlns="http://www.w3.org/2000/svg">
<path d="M0 14.3333V0.334605H4.59339V14.3333H0ZM10.8428 2.56258L13.4844 14.3333H8.45737L5.30307 0.334605H8.12254C8.76907 0.326214 9.39641 0.554123 9.88691 0.975455C10.3782 1.37911 10.7158 1.93948 10.8428 2.56258ZM14.1744 14.3333V0.334605H18.7678V14.3333H14.1744ZM22.2372 5.65812C21.7422 5.66294 21.2552 5.53343 20.828 5.28346C20.4064 5.03981 20.0563 4.68962 19.8127 4.26803C19.5624 3.84072 19.4329 3.35355 19.4378 2.85837C19.4321 2.3662 19.5618 1.88194 19.8127 1.4585C20.0589 1.04149 20.4086 0.695109 20.828 0.452939C21.2553 0.203253 21.7423 0.073767 22.2372 0.0782812C22.7292 0.0729823 23.2133 0.202584 23.6369 0.452939C24.0521 0.697232 24.3981 1.04332 24.6424 1.4585C24.893 1.88206 25.0226 2.36624 25.0172 2.85837C25.0218 3.35352 24.8923 3.8406 24.6424 4.26803C24.4007 4.68777 24.0542 5.03766 23.6369 5.28346C23.2133 5.53431 22.7289 5.66394 22.2366 5.65812H22.2372ZM25.7269 14.3333V0.334605H30.3207V14.3333H25.7269ZM36.136 7.98461C36.1489 7.99819 36.2475 8.1592 36.4317 8.46765C36.6159 8.7761 36.8558 9.17046 37.1513 9.65067C37.447 10.1307 37.759 10.64 38.0874 11.1787C38.4157 11.7174 38.7247 12.2268 39.0143 12.7067C39.3028 13.1867 39.6313 13.7289 40 14.3333H34.9531C34.6375 13.8207 34.3515 13.3574 34.0952 12.9433C33.8389 12.5293 33.5665 12.0823 33.2778 11.6026C32.9884 11.1233 32.7024 10.6566 32.4196 10.2027C32.1368 9.74879 31.8938 9.35121 31.6905 9.0099C31.4863 8.66837 31.3449 8.43831 31.2663 8.31979C31.0713 8.02568 30.9559 7.68601 30.9315 7.33397C30.951 6.99609 31.0597 6.66947 31.2466 6.3873C31.3254 6.25585 31.47 6.0225 31.6803 5.68732C31.8906 5.35214 32.137 4.95456 32.4196 4.49451C32.7021 4.03446 32.9882 3.56454 33.2778 3.08477C33.5674 2.605 33.8398 2.15477 34.0952 1.73416C34.3519 1.31398 34.6379 0.84735 34.9531 0.334284H40L36.0962 6.70275C35.9754 6.89183 35.9073 7.10974 35.8991 7.33397C35.9121 7.56938 35.9942 7.7957 36.1353 7.98461H36.136Z" fill="white"/>
<path d="M9.37033 28.8866C9.53341 29.3764 9.6112 29.8905 9.60033 30.4066C9.62289 31.0995 9.48245 31.7879 9.19033 32.4166C8.92515 32.9474 8.52512 33.3991 8.03033 33.7266C7.50015 34.0727 6.91006 34.3169 6.29033 34.4466C5.59046 34.5973 4.87623 34.6711 4.16033 34.6666C3.84033 34.6666 3.52367 34.6533 3.21033 34.6266C2.897 34.5999 2.58367 34.5633 2.27033 34.5166C1.94367 34.4672 1.61988 34.4005 1.30033 34.3166C0.948285 34.2243 0.601168 34.1142 0.260333 33.9866L0 32.0066C0.32 32.1266 0.656778 32.2434 1.01033 32.3569C1.36389 32.4705 1.72711 32.567 2.1 32.6466C2.47289 32.7266 2.84622 32.7899 3.22 32.8366C3.57818 32.8825 3.93889 32.9059 4.3 32.9066C4.67155 32.9098 5.04276 32.8831 5.41 32.8266C5.71077 32.7812 6.00364 32.6937 6.28 32.5666C6.52454 32.4531 6.74256 32.2896 6.92 32.0866C7.09673 31.8809 7.2325 31.6433 7.32 31.3866C7.41839 31.0901 7.46584 30.779 7.46033 30.4666C7.46748 30.173 7.4165 29.8808 7.31033 29.6069C7.21888 29.3795 7.07897 29.1748 6.90033 29.0069C6.71189 28.837 6.49965 28.6955 6.27033 28.5869C6.00327 28.4595 5.72554 28.3558 5.44033 28.2769C5.13344 28.1907 4.80011 28.1074 4.44033 28.0269C3.99989 27.934 3.56989 27.8207 3.15033 27.6869C2.7473 27.5607 2.35586 27.4002 1.98033 27.2069C1.62607 27.0246 1.30223 26.7885 1.02033 26.5069C0.73535 26.2195 0.513905 25.8754 0.370333 25.4969C0.207031 25.0452 0.129042 24.5671 0.140333 24.0869C0.124783 23.4666 0.251344 22.8509 0.510333 22.2869C0.752913 21.785 1.11719 21.3518 1.57 21.0266C2.06153 20.6789 2.61468 20.4277 3.2 20.2866C3.88728 20.1195 4.59274 20.0389 5.3 20.0466C5.64667 20.0466 5.98656 20.0633 6.31967 20.0966C6.64884 20.1294 6.97607 20.1795 7.3 20.2466C7.62 20.3133 7.93656 20.3934 8.24967 20.4869C8.55736 20.5779 8.85553 20.6985 9.14 20.8469L8.86 22.6069C8.60707 22.4678 8.34265 22.3507 8.06967 22.2569C7.7783 22.1558 7.48109 22.0723 7.17967 22.0069C6.86942 21.9398 6.55573 21.8897 6.24 21.8569C5.92773 21.8242 5.61398 21.8075 5.3 21.8069C4.95541 21.8049 4.61115 21.8283 4.27 21.8769C3.9831 21.916 3.70347 21.9969 3.44 22.1169C3.20976 22.2239 2.99729 22.3656 2.81 22.5369C2.62925 22.7049 2.49199 22.9142 2.41 23.1469C2.31927 23.4106 2.27528 23.6881 2.28 23.9669C2.27341 24.2361 2.31751 24.5041 2.41 24.7569C2.49311 24.972 2.6269 25.1639 2.8 25.3163C2.98396 25.477 3.18923 25.6116 3.41 25.7163C3.66681 25.8382 3.93469 25.9353 4.21 26.0063C4.51 26.0863 4.83322 26.1663 5.17967 26.2463C5.633 26.3398 6.073 26.4532 6.49967 26.5863C6.91609 26.7155 7.32095 26.8794 7.71 27.0763C8.081 27.2633 8.41882 27.5099 8.71 27.8063C9.00566 28.1142 9.23086 28.4827 9.37 28.8863M20.96 33.1666C21.0758 33.1513 21.1898 33.1245 21.3003 33.0866L21.0803 34.4266C21.0054 34.4557 20.9284 34.4791 20.85 34.4966C20.763 34.5166 20.6667 34.5396 20.56 34.5666C20.4518 34.5932 20.3415 34.6099 20.2303 34.6166C20.1167 34.6229 20 34.6266 19.88 34.6266C19.4898 34.6335 19.1022 34.5621 18.74 34.4166C18.4124 34.2818 18.1383 34.0428 17.96 33.7366C17.8555 33.5537 17.7823 33.3546 17.7433 33.1476C17.6198 33.2942 17.4885 33.4341 17.35 33.5666C16.9855 33.9119 16.5578 34.1835 16.0903 34.3666C15.5494 34.5647 14.9762 34.6597 14.4003 34.6466C13.7856 34.668 13.1758 34.5303 12.63 34.2466C12.1827 34.0062 11.8146 33.6416 11.57 33.1966C11.3368 32.7635 11.2165 32.2785 11.2203 31.7866C11.2177 31.2623 11.3745 30.7497 11.67 30.3166C12.0187 29.8301 12.4921 29.4467 13.0403 29.2066C13.773 28.8854 14.5607 28.7089 15.3603 28.6866L17.698 28.5283L17.7 28.0266C17.7057 27.6861 17.6653 27.3463 17.58 27.0166C17.5106 26.7492 17.3727 26.5045 17.18 26.3066C16.9633 26.1035 16.6984 25.959 16.4103 25.8866C16.0152 25.7852 15.6082 25.7381 15.2003 25.7466C14.9337 25.7466 14.6636 25.7566 14.39 25.7766C14.1115 25.7973 13.8343 25.834 13.56 25.8866C13.28 25.9404 12.9901 26.007 12.6903 26.0866C12.3906 26.1662 12.0738 26.2662 11.74 26.3866L11.9803 24.6866C12.3232 24.55 12.6737 24.4331 13.03 24.3366C13.4144 24.2331 13.8054 24.1563 14.2003 24.1066C14.6181 24.053 15.0388 24.0262 15.46 24.0266C15.9911 24.0208 16.5212 24.0745 17.0403 24.1866C17.4647 24.2771 17.8727 24.4322 18.25 24.6466C18.5749 24.8331 18.8577 25.085 19.0803 25.3863C19.3003 25.6947 19.4628 26.0404 19.56 26.4066C19.6707 26.8241 19.7246 27.2547 19.7203 27.6866L19.68 31.8066C19.6373 32.1744 19.7145 32.5463 19.9003 32.8666C19.9949 32.9788 20.1152 33.0665 20.2509 33.1222C20.3867 33.1779 20.5339 33.2 20.68 33.1866C20.7737 33.1857 20.8672 33.179 20.96 33.1666ZM17.6823 31.9716L17.6913 29.9866H15.9403C15.4155 29.9724 14.891 30.0262 14.38 30.1466C14.0529 30.2169 13.7579 30.3925 13.5403 30.6466C13.3521 30.9226 13.2606 31.2531 13.28 31.5866C13.2721 31.8634 13.3413 32.1369 13.48 32.3766C13.62 32.6027 13.8257 32.7806 14.0697 32.8866C14.3697 33.0145 14.6939 33.0759 15.02 33.0666C15.3052 33.0673 15.5899 33.0406 15.87 32.9866C16.1402 32.9344 16.4025 32.8469 16.65 32.7266C16.8985 32.6055 17.1332 32.458 17.35 32.2866C17.47 32.1914 17.5815 32.086 17.6833 31.9716M18.6203 19.2666H16.46L14.76 22.8466H16.32L18.6203 19.2666ZM37.0203 24.4466C36.4749 24.1505 35.8603 24.0055 35.24 24.0266C34.7018 24.0251 34.1675 24.1165 33.6603 24.2966C33.1451 24.481 32.6599 24.7404 32.2203 25.0663C31.9711 25.2507 31.734 25.4512 31.5107 25.6663C31.3057 25.1656 30.9443 24.7446 30.4803 24.4663C29.9283 24.1687 29.307 24.0238 28.6803 24.0463C28.1456 24.0464 27.6148 24.1376 27.1107 24.3159C26.5932 24.4981 26.1048 24.7542 25.6607 25.0763C25.5167 25.1799 25.3777 25.2923 25.2403 25.4096V24.0466L23.2007 24.3466V34.4466H25.2403V26.8393C25.4807 26.6819 25.7312 26.5407 25.9903 26.4166C26.3077 26.2666 26.6395 26.1493 26.9807 26.0666C27.2946 25.989 27.6166 25.9487 27.94 25.9466C28.237 25.9377 28.5328 25.9887 28.8097 26.0966C29.039 26.1936 29.2415 26.3446 29.4 26.5366C29.5737 26.7595 29.6934 27.0197 29.7497 27.2966C29.8278 27.6546 29.8648 28.0203 29.86 28.3866V34.4466H31.9V27.9666C31.9014 27.584 31.8756 27.2018 31.8227 26.8229C32.054 26.6711 32.2934 26.5321 32.54 26.4066C32.8518 26.2495 33.1806 26.1287 33.52 26.0466C33.8407 25.9681 34.1695 25.9278 34.4997 25.9266C34.7935 25.9195 35.0859 25.9705 35.36 26.0766C35.5932 26.1717 35.7992 26.3228 35.96 26.5166C36.134 26.7394 36.2538 26.9996 36.31 27.2766C36.388 27.6346 36.4249 28.0003 36.42 28.3666V34.4466H38.46V27.9466C38.4859 27.1902 38.3636 26.4361 38.1 25.7266C37.8927 25.1916 37.5127 24.7411 37.0203 24.4466ZM43.23 19.8566C43.0224 19.7297 42.7833 19.6639 42.54 19.6666C42.2937 19.6647 42.0516 19.7304 41.84 19.8566C41.6313 19.9786 41.4561 20.1504 41.33 20.3566C41.2031 20.5642 41.1373 20.8033 41.14 21.0466C41.1395 21.2908 41.204 21.5307 41.3271 21.7416C41.4501 21.9526 41.6272 22.1269 41.84 22.2466C42.0536 22.3668 42.2949 22.4289 42.54 22.4266C42.782 22.4297 43.0204 22.3675 43.23 22.2466C43.4359 22.1277 43.6053 21.9548 43.72 21.7466C43.8402 21.533 43.9023 21.2917 43.9 21.0466C43.9029 20.8046 43.8408 20.5663 43.72 20.3566C43.6014 20.1513 43.4328 19.9793 43.23 19.8566ZM41.48 34.4466H43.52V24.0466L41.48 24.3466V34.4466ZM55.54 24.1763C55.1659 24.2767 54.8086 24.4317 54.4797 24.6363C54.1386 24.8492 53.8233 25.1009 53.54 25.3863C53.4927 25.4336 53.4467 25.4863 53.3997 25.5363V24.0466L51.36 24.3466V34.4466H53.4V26.8906C53.5516 26.7847 53.7085 26.6866 53.87 26.5966C54.07 26.4863 54.2771 26.3894 54.49 26.3066C54.6964 26.2266 54.9064 26.1566 55.12 26.0966C55.3396 26.0355 55.5638 25.992 55.7903 25.9666C56.0326 25.94 56.2766 25.9333 56.52 25.9466L56.76 24.0663C56.3502 24.0371 55.9383 24.0743 55.5403 24.1763M67.3 33.1666C67.4156 33.1513 67.5294 33.1245 67.6397 33.0866L67.4197 34.4266C67.345 34.4558 67.2682 34.4792 67.19 34.4966C67.103 34.5166 67.0063 34.5396 66.9 34.5666C66.7916 34.5932 66.6811 34.6099 66.5697 34.6166C66.4567 34.6229 66.34 34.6266 66.22 34.6266C65.8298 34.6335 65.4421 34.5621 65.08 34.4166C64.7523 34.2818 64.4782 34.0428 64.3 33.7366C64.1954 33.5538 64.1221 33.3547 64.0833 33.1476C63.9596 33.294 63.8283 33.4339 63.69 33.5666C63.3253 33.9118 62.8975 34.1834 62.43 34.3666C61.889 34.5647 61.3157 34.6597 60.7397 34.6466C60.1252 34.668 59.5156 34.5302 58.97 34.2466C58.5227 34.0063 58.1545 33.6416 57.91 33.1966C57.6766 32.7635 57.5561 32.2786 57.5597 31.7866C57.5569 31.2622 57.714 30.7495 58.01 30.3166C58.3583 29.8299 58.8316 29.4464 59.38 29.2066C60.1126 28.8854 60.9004 28.7088 61.7 28.6866L64.0377 28.5283L64.04 28.0266C64.0456 27.6861 64.0051 27.3463 63.9197 27.0166C63.8506 26.7491 63.7127 26.5043 63.5197 26.3066C63.3027 26.1035 63.0376 25.959 62.7493 25.8866C62.3544 25.7851 61.9474 25.738 61.5397 25.7466C61.273 25.7466 61.003 25.7566 60.7297 25.7766C60.4511 25.7973 60.174 25.834 59.8997 25.8866C59.6197 25.9404 59.3296 26.007 59.0293 26.0866C58.7291 26.1662 58.4126 26.2662 58.0797 26.3866L58.3193 24.6866C58.6625 24.55 59.0132 24.4331 59.3697 24.3366C59.7539 24.2331 60.1448 24.1562 60.5397 24.1066C60.9575 24.053 61.3784 24.0262 61.7997 24.0266C62.3307 24.0208 62.8606 24.0745 63.3797 24.1866C63.8042 24.2771 64.2122 24.4323 64.5897 24.6466C64.9145 24.833 65.197 25.0849 65.4193 25.3863C65.6397 25.6947 65.8025 26.0403 65.9 26.4066C66.0103 26.8242 66.064 27.2547 66.0597 27.6866L66.02 31.8066C65.9773 32.1744 66.0543 32.5461 66.2397 32.8666C66.3344 32.9788 66.4548 33.0664 66.5907 33.1221C66.7265 33.1779 66.8738 33.2 67.02 33.1866C67.1137 33.1856 67.2072 33.179 67.3 33.1666ZM64.0223 31.9716L64.031 29.9866H62.2797C61.7551 29.9724 61.2308 30.0262 60.72 30.1466C60.3864 30.1986 60.0857 30.3773 59.8808 30.6457C59.6758 30.914 59.5824 31.2511 59.62 31.5866C59.6122 31.8634 59.6814 32.1369 59.82 32.3766C59.9604 32.6027 60.1663 32.7806 60.4103 32.8866C60.7103 33.0146 61.0344 33.076 61.3603 33.0666C61.6455 33.0674 61.93 33.0406 62.21 32.9866C62.4803 32.9345 62.7425 32.847 62.99 32.7266C63.2385 32.6056 63.4732 32.4581 63.69 32.2866C63.8099 32.1913 63.9214 32.0859 64.0233 31.9716M76.4797 19.6466L78.5193 19.3666V34.4466H76.86L76.6087 33.5219C76.459 33.6306 76.3087 33.7339 76.1593 33.8266C75.7274 34.0975 75.2595 34.3062 74.7693 34.4466C74.2777 34.5822 73.7697 34.6495 73.2597 34.6466C72.428 34.6698 71.6065 34.4584 70.8893 34.0366C70.2229 33.6229 69.694 33.0208 69.3697 32.3066C68.9975 31.4703 68.8163 30.5617 68.8393 29.6466C68.806 28.5866 69.0472 27.536 69.5393 26.5966C69.9605 25.814 70.5872 25.1612 71.3519 24.7083C72.1166 24.2555 72.9903 24.0198 73.879 24.0266C74.3455 24.0227 74.8113 24.0663 75.269 24.1566C75.6607 24.2354 76.0454 24.3458 76.4193 24.4866C76.44 24.4946 76.459 24.5043 76.4793 24.5123L76.4797 19.6466ZM76.4797 32.2109V26.0466C76.375 26.0083 76.2673 25.9669 76.1697 25.9359C75.8658 25.8382 75.5547 25.7647 75.2393 25.7159C74.9216 25.6684 74.6006 25.6451 74.2793 25.6459C73.6552 25.6289 73.0376 25.7773 72.4893 26.0759C71.9853 26.3673 71.5836 26.8074 71.3393 27.3359C71.0528 27.9873 70.9161 28.6947 70.9393 29.4059C70.9171 30.1003 71.0397 30.7916 71.2993 31.4359C71.5064 31.9382 71.8714 32.3594 72.339 32.6359C72.8419 32.9082 73.4077 33.0428 73.9793 33.0259C74.4693 33.0134 74.9532 32.9153 75.4093 32.7359C75.7812 32.5936 76.1394 32.4176 76.4793 32.2103M83.389 19.8566C83.1815 19.7297 82.9425 19.6639 82.6993 19.6666C82.453 19.6647 82.2109 19.7304 81.9993 19.8566C81.7908 19.9787 81.6157 20.1504 81.4897 20.3566C81.3626 20.5641 81.2968 20.8033 81.2997 21.0466C81.2974 21.293 81.3632 21.5352 81.4897 21.7466C81.6119 21.956 81.7882 22.1286 82 22.2466C82.2136 22.3668 82.4549 22.4289 82.7 22.4266C82.9419 22.4297 83.1801 22.3675 83.3897 22.2466C83.5957 22.1279 83.7653 21.9549 83.88 21.7466C84.0001 21.533 84.0622 21.2917 84.06 21.0466C84.0628 20.8046 84.0006 20.5664 83.88 20.3566C83.7613 20.1512 83.5927 19.9792 83.3897 19.8566M81.6397 34.4466H83.68V24.0466L81.6397 24.3466V34.4466ZM96.46 29.2266C96.4849 30.228 96.2544 31.2192 95.7903 32.1069C95.3621 32.9014 94.7123 33.5544 93.92 33.9866C93.0714 34.4385 92.1213 34.6657 91.16 34.6466C90.2418 34.6663 89.3335 34.453 88.52 34.0266C87.7642 33.6178 87.1531 32.9857 86.77 32.2166C86.3435 31.3355 86.1343 30.3651 86.16 29.3866C86.1349 28.4004 86.3585 27.4237 86.81 26.5466C87.2256 25.7648 87.8574 25.1191 88.63 24.6866C89.4715 24.2562 90.4025 24.0301 91.3476 24.0266C92.2927 24.0232 93.2254 24.2424 94.07 24.6666C94.8257 25.082 95.4415 25.7118 95.84 26.4766C96.2698 27.3283 96.4828 28.2729 96.46 29.2266ZM94.34 29.2666C94.3454 28.7642 94.2849 28.2633 94.16 27.7766C94.0549 27.3606 93.868 26.9697 93.6103 26.6266C93.3685 26.3111 93.0523 26.0603 92.69 25.8966C92.2762 25.7208 91.8295 25.6355 91.38 25.6466C90.8042 25.6307 90.2346 25.7687 89.73 26.0466C89.2581 26.3267 88.8844 26.7458 88.66 27.2466C88.3861 27.8837 88.2564 28.5735 88.28 29.2666C88.2582 29.979 88.3877 30.6879 88.66 31.3466C88.8653 31.8619 89.2259 32.3006 89.6918 32.6017C90.1577 32.9027 90.7058 33.0512 91.26 33.0266C91.8205 33.0367 92.3734 32.8951 92.86 32.6166C93.3442 32.3232 93.7251 31.8863 93.9497 31.3666C94.2299 30.703 94.3633 29.9866 94.34 29.2666Z" fill="white"/>
</svg>

<svg xmlns="http://www.w3.org/2000/svg" viewBox="0 0 97 35"><path fill="#fff" d="M0 14.333V.335h4.593v13.998H0Zm10.843-11.77 2.641 11.77H8.457L5.303.335h2.82a2.655 2.655 0 0 1 1.764.64c.491.404.829.964.956 1.588Zm3.331 11.77V.335h4.594v13.998h-4.594Zm8.063-8.675a2.738 2.738 0 0 1-1.409-.375 2.778 2.778 0 0 1-1.015-1.015 2.735 2.735 0 0 1-.375-1.41 2.685 2.685 0 0 1 .375-1.4A2.812 2.812 0 0 1 23.637.454c.415.244.761.59 1.005 1.005.251.424.38.908.375 1.4.005.496-.125.983-.375 1.41a2.8 2.8 0 0 1-1.005 1.015c-.424.251-.908.38-1.4.375Zm3.49 8.675V.335h4.594v13.998h-4.594Zm10.409-6.348c.013.013.111.174.296.483.184.308.424.702.72 1.183a386.846 386.846 0 0 1 1.862 3.056c.289.48.617 1.022.986 1.626h-5.047l-.858-1.39c-.256-.414-.529-.86-.817-1.34-.29-.48-.576-.946-.858-1.4a71.148 71.148 0 0 1-.73-1.193 21.112 21.112 0 0 0-.424-.69 2.04 2.04 0 0 1-.334-.986c.019-.338.128-.665.315-.947.078-.131.223-.364.433-.7a216.7 216.7 0 0 0 1.598-2.603l.817-1.35.858-1.4H40l-3.904 6.369c-.12.189-.189.407-.197.631.013.235.095.462.236.65h.001ZM9.37 28.887c.163.49.241 1.003.23 1.52a4.428 4.428 0 0 1-.41 2.01c-.265.53-.665.982-1.16 1.31a5.09 5.09 0 0 1-1.74.72c-.7.15-1.414.224-2.13.22-.32 0-.636-.014-.95-.04a15.035 15.035 0 0 1-.94-.11 9.289 9.289 0 0 1-.97-.2c-.352-.093-.699-.203-1.04-.33L0 32.007c.32.12.657.236 1.01.35.354.114.717.21 1.09.29.373.08.746.143 1.12.19.358.045.719.069 1.08.07.372.003.743-.024 1.11-.08.3-.046.594-.133.87-.26.245-.114.463-.277.64-.48.177-.206.313-.444.4-.7.098-.297.146-.608.14-.92a2.229 2.229 0 0 0-.15-.86 1.687 1.687 0 0 0-.41-.6c-.188-.17-.4-.312-.63-.42a5.063 5.063 0 0 0-.83-.31 19.27 19.27 0 0 0-1-.25c-.44-.093-.87-.206-1.29-.34a7.365 7.365 0 0 1-1.17-.48 3.853 3.853 0 0 1-.96-.7 2.89 2.89 0 0 1-.65-1.01 3.879 3.879 0 0 1-.23-1.41 4.069 4.069 0 0 1 .37-1.8 3.342 3.342 0 0 1 1.06-1.26 4.75 4.75 0 0 1 1.63-.74 8.497 8.497 0 0 1 2.1-.24c.347 0 .687.016 1.02.05.329.032.656.082.98.15.32.066.637.146.95.24.307.09.606.212.89.36l-.28 1.76a5.036 5.036 0 0 0-.79-.35 7.688 7.688 0 0 0-.89-.25 9.194 9.194 0 0 0-1.88-.2 7.014 7.014 0 0 0-1.03.07 2.97 2.97 0 0 0-.83.24c-.23.107-.443.249-.63.42-.18.168-.318.377-.4.61-.09.264-.135.541-.13.82-.007.27.038.537.13.79.083.215.217.407.39.56.184.16.39.295.61.4.257.121.525.218.8.29.3.08.623.16.97.24.453.093.893.206 1.32.34.416.128.82.292 1.21.49.371.186.709.433 1 .73.296.307.52.676.66 1.08m11.59 4.28a1.76 1.76 0 0 0 .34-.08l-.22 1.34c-.075.029-.152.052-.23.07-.087.02-.183.043-.29.07a1.846 1.846 0 0 1-.33.05c-.113.006-.23.01-.35.01a2.92 2.92 0 0 1-1.14-.21 1.613 1.613 0 0 1-.78-.68 1.894 1.894 0 0 1-.217-.59 5.351 5.351 0 0 1-.393.42 3.9 3.9 0 0 1-1.26.8 4.61 4.61 0 0 1-1.69.28 3.569 3.569 0 0 1-1.77-.4 2.63 2.63 0 0 1-1.06-1.05 2.927 2.927 0 0 1-.35-1.41 2.585 2.585 0 0 1 .45-1.47 3.33 3.33 0 0 1 1.37-1.11 6.21 6.21 0 0 1 2.32-.52l2.338-.159.002-.501a3.78 3.78 0 0 0-.12-1.01 1.59 1.59 0 0 0-.4-.71 1.749 1.749 0 0 0-.77-.42 4.49 4.49 0 0 0-1.21-.14c-.266 0-.536.01-.81.03-.279.02-.556.057-.83.11a11.55 11.55 0 0 0-1.82.5l.24-1.7a9.66 9.66 0 0 1 1.05-.35 8.66 8.66 0 0 1 1.17-.23c.418-.054.839-.08 1.26-.08a7.119 7.119 0 0 1 1.58.16c.425.09.833.245 1.21.46.325.186.608.438.83.74.22.308.383.653.48 1.02.11.417.165.848.16 1.28l-.04 4.12c-.043.367.035.74.22 1.06a.911.911 0 0 0 .78.32c.094-.001.187-.008.28-.02Zm-3.278-1.195.01-1.985H15.94a6.086 6.086 0 0 0-1.56.16c-.327.07-.622.245-.84.5-.188.276-.28.606-.26.94-.008.276.061.55.2.79.14.226.346.404.59.51.3.127.624.189.95.18.285 0 .57-.026.85-.08.27-.053.533-.14.78-.26.248-.121.483-.269.7-.44.12-.096.231-.201.333-.315m.937-12.705h-2.16l-1.7 3.58h1.56l2.3-3.58Zm18.4 5.18a3.483 3.483 0 0 0-1.78-.42 4.682 4.682 0 0 0-1.58.27 5.57 5.57 0 0 0-1.44.77c-.249.184-.486.384-.71.6a2.507 2.507 0 0 0-1.03-1.2 3.526 3.526 0 0 0-1.8-.42 4.71 4.71 0 0 0-1.57.269 5.686 5.686 0 0 0-1.87 1.094v-1.363l-2.04.3v10.1h2.04v-7.608c.24-.157.491-.298.75-.422.318-.15.65-.268.99-.35.315-.078.637-.118.96-.12.297-.01.593.042.87.15.229.097.431.248.59.44.174.223.293.483.35.76.078.358.115.723.11 1.09v6.06h2.04v-6.48a8.058 8.058 0 0 0-.077-1.144c.231-.152.47-.29.717-.416.312-.157.64-.278.98-.36.32-.079.65-.12.98-.12.294-.008.586.044.86.15.233.095.44.246.6.44.174.222.294.483.35.76.078.358.115.723.11 1.09v6.08h2.04v-6.5a5.804 5.804 0 0 0-.36-2.22 2.576 2.576 0 0 0-1.08-1.28Zm6.21-4.59a1.295 1.295 0 0 0-.69-.19 1.346 1.346 0 0 0-.7.19 1.464 1.464 0 0 0-.51.5 1.373 1.373 0 0 0 .51 1.89 1.4 1.4 0 0 0 .7.18c.242.003.48-.06.69-.18.206-.12.375-.292.49-.5a1.4 1.4 0 0 0 .18-.7 1.35 1.35 0 0 0-.18-.69 1.407 1.407 0 0 0-.49-.5Zm-1.75 14.59h2.04v-10.4l-2.04.3v10.1Zm14.06-10.27c-.374.1-.731.255-1.06.46a5.214 5.214 0 0 0-.94.75c-.047.047-.093.1-.14.15v-1.49l-2.04.3v10.1h2.04V26.89a5.147 5.147 0 0 1 1.09-.584c.206-.08.416-.15.63-.21a4.28 4.28 0 0 1 1.4-.15l.24-1.88a3.82 3.82 0 0 0-1.22.11m11.76 8.99c.116-.016.23-.043.34-.08l-.22 1.34c-.075.029-.152.052-.23.07a13 13 0 0 0-.29.07 1.852 1.852 0 0 1-.33.05c-.113.006-.23.01-.35.01a2.92 2.92 0 0 1-1.14-.21 1.612 1.612 0 0 1-.78-.68 1.885 1.885 0 0 1-.217-.59 5.502 5.502 0 0 1-.393.42 3.906 3.906 0 0 1-1.26.8 4.61 4.61 0 0 1-1.69.28 3.568 3.568 0 0 1-1.77-.4 2.63 2.63 0 0 1-1.06-1.05 2.927 2.927 0 0 1-.35-1.41 2.58 2.58 0 0 1 .45-1.47 3.32 3.32 0 0 1 1.37-1.11 6.207 6.207 0 0 1 2.32-.52l2.338-.159.002-.501a3.78 3.78 0 0 0-.12-1.01 1.583 1.583 0 0 0-.4-.71 1.752 1.752 0 0 0-.77-.42 4.48 4.48 0 0 0-1.21-.14c-.267 0-.537.01-.81.03-.279.02-.556.057-.83.11-.28.053-.57.12-.87.2-.3.08-.617.18-.95.3l.24-1.7a9.68 9.68 0 0 1 1.05-.35c.384-.104.775-.18 1.17-.23a9.83 9.83 0 0 1 1.26-.08 7.117 7.117 0 0 1 1.58.16c.424.09.832.245 1.21.46.325.186.607.438.83.74.22.308.382.653.48 1.02.11.417.164.848.16 1.28l-.04 4.12c-.043.367.034.74.22 1.06a.912.912 0 0 0 .78.32 2.3 2.3 0 0 0 .28-.02Zm-3.278-1.195.009-1.985H62.28a6.081 6.081 0 0 0-1.56.16 1.31 1.31 0 0 0-1.1 1.44c-.008.276.061.55.2.79.14.226.346.404.59.51.3.128.624.189.95.18.285 0 .57-.026.85-.08.27-.053.532-.14.78-.26.248-.121.483-.269.7-.44.12-.096.231-.201.333-.315M76.48 19.647l2.04-.28v15.08h-1.66l-.251-.925c-.15.109-.3.212-.45.305-.432.27-.9.48-1.39.62-.491.135-1 .203-1.51.2a4.432 4.432 0 0 1-2.37-.61 3.967 3.967 0 0 1-1.52-1.73 6.161 6.161 0 0 1-.53-2.66 6.156 6.156 0 0 1 .7-3.05 4.886 4.886 0 0 1 4.34-2.57c.466-.004.932.04 1.39.13.392.078.776.189 1.15.33l.06.025v-4.865Zm0 12.564v-6.164c-.105-.039-.213-.08-.31-.111a6.075 6.075 0 0 0-1.89-.29 3.541 3.541 0 0 0-1.79.43 2.824 2.824 0 0 0-1.15 1.26 4.756 4.756 0 0 0-.4 2.07c-.023.694.1 1.386.36 2.03.206.502.571.923 1.039 1.2a3.244 3.244 0 0 0 1.64.39c.49-.013.974-.11 1.43-.29.372-.142.73-.318 1.07-.526m6.91-12.353a1.294 1.294 0 0 0-.69-.19 1.346 1.346 0 0 0-.7.19 1.464 1.464 0 0 0-.51.5 1.291 1.291 0 0 0-.19.69c-.002.246.064.488.19.7.123.209.3.382.511.5a1.4 1.4 0 0 0 .7.18c.242.003.48-.06.69-.18.206-.12.375-.292.49-.5.12-.214.182-.455.18-.7.003-.242-.06-.48-.18-.69a1.406 1.406 0 0 0-.49-.5m-1.75 14.59h2.04v-10.4l-2.04.3v10.1Zm14.82-5.22a5.9 5.9 0 0 1-.67 2.88 4.66 4.66 0 0 1-1.87 1.88 5.634 5.634 0 0 1-2.76.66 5.436 5.436 0 0 1-2.64-.62 4.173 4.173 0 0 1-1.75-1.81 6.126 6.126 0 0 1-.61-2.83 5.879 5.879 0 0 1 .65-2.84 4.613 4.613 0 0 1 1.82-1.86 6.017 6.017 0 0 1 5.44-.02 4.37 4.37 0 0 1 1.77 1.81c.43.851.643 1.796.62 2.75Zm-2.12.04a5.746 5.746 0 0 0-.18-1.49 3.234 3.234 0 0 0-.55-1.15 2.41 2.41 0 0 0-.92-.73 3.151 3.151 0 0 0-1.31-.25 3.235 3.235 0 0 0-1.65.4c-.472.28-.846.699-1.07 1.2a4.709 4.709 0 0 0-.38 2.02 5.04 5.04 0 0 0 .38 2.08 2.672 2.672 0 0 0 2.6 1.68c.56.01 1.113-.132 1.6-.41.484-.294.865-.73 1.09-1.25.28-.664.413-1.38.39-2.1Z"/></svg>
